X:1
T:Title
%%score [ 1 ( 2 3 ) ( 4 5 ) ( 6 7 ) ]
L:1/8
Q:1/4=132
M:4/4
K:Emin
V:1 treble nm="MusicXML Part"
V:2 treble nm="MusicXML Part"
V:3 treble 
V:4 treble-8 nm="MusicXML Part"
V:5 treble-8 
V:6 bass nm="MusicXML Part"
V:7 bass 
V:1
!p!"^Teneroso""^S" E4 B4[Q:1/2=66] | c4 B2 e2- | e2 d2 c4 | B4 A4- | A2 G2 F4 | E8 | z4 E4 | %7
w: Re- gem|na tum an-|* ge- lus-|an- nun-|* ti- a-|vit,|re-|
 B4 c2 A2 | e3 e A2 A2 | A2 c2 d4 | c4 A2 (B2- | BA A4) ^G2 |!f! A4 z2 A2 | G2 A2 B2 c2 | %14
w: gem na- tum|an- ge- lus an-|nun- ti- a-|vit pa- sto|* * * ri-|bus E-|ius- que vo- ci|
 d2 c2 A2 B2 | A4 (B3 A | G4) F3 F | ^G2 B2 B2 B2 | (GA BG c2) B2 | A2 G2 z2 e2 | e2 e2 (cd ec | %21
w: an- ge- lo- rum|cho- ri- *|* con- ci-|nunt, et col- lau-|dan- * * * * tes|cla- mant, et|col- lau- dan- * * *|
 =f2) e2 d4 | e2 (c4 B2) |!p! c4 z2 G2- | GG G2 A2 B2 | A2 G2 F4 |!f! ^G4 z2 B2- | BB B2 c2 d2 | %28
w: * tes cla-|mant, cla- *|mant. Glo-|* ri- a in ex-|cel- sis De-|o, glo-|* ri- a in- ex-|
 =f2 e4 ^d2 |!p! e2 E2 F4 | G4 A4 | B2 B2 c2 d2 | B4 E4 | F2 G2 A2 B2 | c2 d4 c2 | B4 z2 A2- | %36
w: cel- sis De-|o et in|ter- ra|pax ho- mi- ni-|bus, et|in ter- ra pax|ho- mi- ni-|bus bo-|
 A2 G2 F4 | E4 E4 | E4 z2 e2- | e2 d2 c2 B2 | (GA Bc B A2 ^G) |!f! A2 z c BGAB | c2 z G ABGA | %43
w: * nae vo-|lun- ta-|tis, bo-|* nae vo- lun-|ta- * * * * * *|tis. No- el, no- el, no-|el, no- el, no- el, no-|
 B2 z B2 A2 ^G |!p! A2 z c BGAB | c2 z G ABGA |!f! B2 z B2 A2 ^G | !fermata!A8 |] %48
w: el, no- el, no-|el, no- el, no- el, no-|el, no- el, no- el, no-|el, no- el, no-|el.|
V:2
"^A" z8 |!p! x8 | x8 | x8 | x8 | x8 | x8 | x8 | x8 | x8 | x8 | x8 |!f! x8 | x8 | x8 | x8 | x8 | %17
 x8 | x8 | x8 | x8 | x8 | x8 |!p! x8 | x8 | x8 |!f! x8 | x8 | x8 | x8 | z8 |!p! x8 | x8 | x8 | x8 | %35
 x8 | x8 | x8 | x8 | x8 | x8 |!f! x8 | x8 | x8 |!p! x8 | x8 |!f! x8 | x8 |] %48
V:3
 x8 | A,4 E4 | =F4 E2 A2- | A2 G2 F4- | E4 D4 | C2 A,3 ^G, G,2 | A,4 z4 | E4 A4 | z4 z2 A,2- | %9
w: |Re- gem|na- tum an-|* ge- lus|an- nun|ti- a- * *|vit,|re- gem|re-|
 A,2 E2 D2 F2 | A3 A F4 | z2 D2 E2 E2 | E4 E2 E2 | D2 E2 G2 E2 | D2 E2 F2 G2 | FF E2 F2 F2 | %16
w: * gem na- tum|an- ge- lus|an- nun- ti-|a- vit pa-|sto- ri- bus. E-|ius- que vo- ci|an- ge- lo- rum cho-|
 G2 E4 ^D2 | E4 z4 | z2 E2 E2 E2 | (CD EC G2) G2 | A4 A4 | z2 G2 G2 G2 | G2 G2 G4 | E4 z2 E2- | %24
w: ri con- ci-|nunt,|et col- lau-|dan- * * * * tes|cla- mant,|et col- lau-|dan- tes cla-|mant. Glo-|
 ED E2 F2 G2 | F2 E4 ^D2 | E4 z2 G2- | GF G2 A2 B2 | A2 G2 F4 | E4 z4 | x8 | z4 A,4 | B,4 ^C4- | %33
w: * ri- a in ex-|cel- sis De-|o, glo-|* ri- a in ex-|cel- sis De-|o||et|in ter-|
 C2 D2 E2 F2 | G2 A2 E4 | z2 E4 D2 | C2 B,2 B,4 | C2 z2 z2 A2- | A2 G2 =F2 E2 | G4 E4 | %40
w: * ra pax ho-|mi- ni- bus|bo- nae|vo- lun- ta-|tis, bo-|* nae vo- lun-|ta- tis,|
 z2 E2 E2 E2 | E2 z C DECD | E2 G2 FDEF | GF G2 E4 | E2 z C DECD | E2 G2 FDEF | GF G2 E4 | %47
w: vo- lun- ta-|tis. No- el, no- el, no-|el, no- el, no- el, no-|el, no- el, no-|el, no- el, no- el, no-|el, no- el, no- el, no-|el, no- el, no-|
 !fermata!E8 |] %48
w: el.|
V:4
"^T" z8 | z8 | z8 | z8 |!p! x8 | x8 | x8 | x8 | x8 | x8 | x8 | x8 |!f! x8 | x8 | x8 | x8 | x8 | %17
 x8 | x8 | x8 | x8 | x8 | x8 | x8 | z8 | z8 |!f! x8 | x8 | x8 |!p! x8 | x8 | x8 | x8 | x8 | x8 | %35
 x8 | x8 | x8 | x8 | x8 | x8 | x8 |!f! x8 | x8 |!p! x8 | x8 |!f! x8 | x8 |] %48
V:5
 x8 | x8 | x8 | x8 | E4 B4 | c4 B2 e2- | e2 d2 c4 | B4 A4- | A2 G2 F4 | E4 B4 | (cd ec d2-) d2 | %11
w: ||||Re- gem|na- tum an-|* ge- lus|an- nun-|* ti- a-|vit pa-|sto- * * * * ri-|
 (c2 BA B4) | z2 A2 G2 A2 | B2 c2 d2 c2 | G2 g2 f2 d2 | (^cd e4) ^d2 | e4 z2 B2 | B2 B2 (GA BG | %18
w: bus. * * *|E- ius- que|vo- ci an- ge-|lo- rum cho- ri|con- * * ci-|nunt, et|col- lau- dan- * * *|
 c2) B2 A2 G2 | z2 e2 e2 e2 | (cd ec =f2 e2 | dc c4) B2 | (cd ec d4) | c8 | x8 | x8 | z4 z2 e2- | %27
w: * tes cla- mant,|et col- lau-|dan- * * * * *|* * * tes|cla- * * * *|mant.|||Glo-|
 e^d e2 c2 B2 | d2 e2 B4 | G2 A4 B2- | B2 c4 d2- | d2 e4 f2 | g2 d2 e2 A2- | A2 B2 c2 d2 | %34
w: * ri- a in ex-|cel- sis De-|o et in-|* ter- ra-|* pax ho-|mi- ni- bus, et|* in ter- ra|
 e2 f2 g2 a2 | e4 z4 | z2 e4 d2 | c2 B2 A4 | E4 z2 c2- | c2 B2 A2 B2 | (c2 BA Bc B2) | A4 z4 | %42
w: pax ho- mi- ni-|bus|bo- nae|vo- lun- ta-|tis bo-|* nae vo- lun-|ta- * * * * *|tis.|
 z2 e2 dBcA | Gde d2 c B2 | z4 x4 | z2 e2 dBcA | Gde d2 c B2 | !fermata!A8 |] %48
w: No- el, no- el, no-|el, no- el, no- el, no-||no- el, no- el, no-|el, no- el, no- el, no-|el.|
V:6
"^B" z8 | z8 | z8 | z8 | z8 |!p! x8 | x8 | x8 | x8 | x8 | x8 | x8 | x8 |!f! x8 | x8 | x8 | x8 | %17
 x8 | x8 | x8 | x8 | x8 | x8 |!p! x8 | x8 | x8 | x8 | z8 |!p! x8 | x8 | x8 | x8 | x8 | z8 | x8 | %35
 x8 | x8 | x8 | x8 | x8 | x8 |!f! x8 | x8 | x8 |!p! x8 |!f! x8 | x8 | x8 |] %48
V:7
 x8 | x8 | x8 | x8 | x8 | A,,4 E,4 | =F,4 E,2 A,2- | A,2 G,2 =F,4 | E,4 D,4- | D,2 C,2 B,,4 | %10
w: |||||Re- gem|na- tum an-|* ge- lus|an- nun-|* ti- a-|
 A,,4 (D,3 E, | =F,4) E,3 E, | A,,4 z4 | z2 A,2 G,2 A,2 | B,2 C2 D2 G,2 | A,2 C2 B,4 | E,4 B,3 B, | %17
w: vit pa- *|* sto- ri-|bus.|E- ius- que|vo- ci an- ge-|lo- rum cho-|ri con- ci-|
 E,4 z2 E,2 | E,2 E,2 (C,D, E,C, | =F,2) E,2 C4 | A,4 z2 A,2 | D,2 E,2 G,4 | C,4 G,4 | C,4 z2 C2- | %24
w: nunt, et|col- lau- dan- * * *|* tes cla-|mant, et|col- lau- dan-|tes cla-|mant. Glo-|
 CB, C2 A,2 G,2 | D,2 E,2 B,4 | E,8 | x8 | z4 B,,4 | C,4 D,4 | E,4 F,4 | G,4 A,2 D,2 | G,4 z4 | %33
w: * ri- a in ex-|cel- sis De-|o||et|in ter-|ra pax|ho- mi- ni-|bus|
 x8 | z4 z2 A,2- | A,2 G,2 F,4 | E,4 B,,4 | E,4 z2 C2- | C2 B,2 A,4 | G,4 (A,2 G,F, | %40
w: |bo-|* nae vo-|lun- ta-|tis, bo-|* nae vo-|lun- ta- * *|
 E,F, ^G,A, G,A, E,2) | A,,2 z A, G,E,=F,D, | C,4 z2 C2 | B,2 G,2 A,2 E,2 | A,,2 z A, G,E,=F,D, | %45
w: |tis. No- el, no- el, no-|el, no-|el, no- el, no-|el, no- el, no- el, no-|
 C,4 z2 C2 | B,2 G,2 A,2 E,2 | !fermata!A,,8 |] %48
w: el, no-|el, no- el, no-|el.|

